icon-themes/breeze_svg/cmd/32/graphicfilterremovenoise.svg

<svg xmlns="http://www.w3.org/2000/svg" viewBox="0 0 32 32">
 <path 
     style="fill:#4d4d4d" 
     d="M 15.982422 4 L 9 11 L 8 12 L 8 20 L 16 28 L 17 28 L 17 27 L 17 5 L 17 4 L 15.982422 4 z M 21.263672 10.113281 L 20.632812 10.996094 C 22.135668 12.405805 22.997539 14.432481 23 16.5625 C 22.9968 18.453374 22.315877 20.271963 21.095703 21.648438 L 21.685547 22.474609 C 23.167097 20.884376 23.998727 18.737579 24 16.5 C 23.9961 14.051739 22.998904 11.724135 21.263672 10.113281 z M 4 12 L 4 13 L 4 19 L 4 20 L 7 20 L 7 19 L 7 13 L 7 12 L 4 12 z "
     />
 <path 
     style="fill:#b3b3b3" 
     d="M 20.367188 4.5917969 L 20.126953 5.5488281 C 24.27406 7.0242259 27.081305 11.241399 27.083984 16 C 27.077933 20.756291 24.270373 24.969601 20.125 26.443359 L 20.369141 27.417969 C 24.914982 25.822386 27.997899 21.209452 28 16 C 27.993743 10.793578 24.910663 6.185525 20.367188 4.5917969 z "
     />
</svg>

<svg viewBox="0 0 32 32" xmlns="http://www.w3.org/2000/svg"><path d="m15.982422 4-6.982422 7-1 1v8l8 8h1v-1-22-1zm-11.982422 8v1 6 1h3v-1-6-1z" fill="#4d4d4d"/><path d="m20 15v2h8v-2z" fill="#da4453"/></svg>
